svgs/thin/comment-middle.svg

<svg xmlns="http://www.w3.org/2000/svg" viewBox="0 0 512 512"><!-- Font Awesome Pro 6.0.0-alpha2 by @fontawesome - https://fontawesome.com License - https://fontawesome.com/license (Commercial License) --><path d="M256 0C114.594 0 0 93.094 0 208C0 303.988 80.076 384.533 188.838 408.525L237.725 501.916C241.242 508.639 248.621 512 256 512S270.758 508.639 274.275 501.916L323.162 408.525C431.924 384.533 512 303.988 512 208C512 93.094 397.406 0 256 0ZM312.441 394.506L260.1 494.496C259.713 495.236 258.074 496 256 496S252.287 495.236 251.9 494.496L199.559 394.506C22.604 355.447 16 226.268 16 208C16 102.131 123.664 16 256 16S496 102.131 496 208C496 226.268 489.396 355.447 312.441 394.506Z"/></svg>

<svg xmlns="http://www.w3.org/2000/svg" viewBox="0 0 512 512"><!--! Font Awesome Pro 6.3.0 by @fontawesome - https://fontawesome.com License - https://fontawesome.com/license (Commercial License) Copyright 2023 Fonticons, Inc. --><path d="M256 0C114.6 0 0 93.09 0 208c0 95.99 80.08 176.5 188.8 200.5l48.89 93.39C241.2 508.6 248.6 512 256 512s14.76-3.361 18.28-10.08l48.89-93.39C431.9 384.5 512 303.1 512 208C512 93.09 397.4 0 256 0zM312.4 394.5l-52.34 99.99C259.7 495.2 258.1 496 256 496s-3.713-.7637-4.1-1.504l-52.34-99.99C22.6 355.4 16 226.3 16 208c0-105.9 107.7-192 240-192s240 86.13 240 192C496 226.3 489.4 355.4 312.4 394.5z"/></svg>
